!!!COA:	Josquin des Prez
!!!CDT:	~1450-1521/08/27
!!!OPR:	Missa L'ami baudichon
!!!ONM:	2
!!!OTL:	Gloria
!!!AGN:	Mass; Gloria
!!!SCT:	NJE 5.1
!!!SCA:	New Josquin Edition 5.1
!!!voices:	4
!!!voices-OPR:	4
**kern	**kern	**kern	**kern
*staff4	*staff3	*staff2	*staff1
*Ivox	*Ivox	*Ivox	*Ivox
*I"Bassus	*I"Tenor	*I"Altus	*I"Superius
*I'B	*I'T	*I'A	*I'S
*clefF4	*clefGv2	*clefGv2	*clefG2
*k[]	*k[]	*k[]	*k[]
*M3/1	*M3/1	*M3/1	*M3/1
*met(O)	*met(O)	*met(O)	*met(O)
=1-	=1-	=1-	=1-
!	!LO:TX:Z=10:X=-40:t=Canon&colon; In duplo [2&colon;1 augmentation]	!	!
*	*rscale:1/2	*	*
!	!LO:N:vis:0.	!	!
0.r	0.r	0c	0cc
.	.	2e\	1cc
.	.	2f\	.
=2	=2-	=2	=2
0.r	0.ryy	1g	1b
.	.	1.f	1.a
.	.	2e\	2g/
=3	=3	=3	=3
!	!LO:N:vis:0.	!	!
0.r	0.r	1e	1g
.	.	2d\	1.f
.	.	1d	.
.	.	4c\	2e/
.	.	4B\	.
=4	=4-	=4	=4
0.r	0.ryy	2G/	1e
.	.	2c\	.
.	.	2d\	1.d
.	.	1B	.
.	.	2A/	2c/
=5	=5	=5	=5
!	!LO:N:vis:0.	!	!
0.r	0.r	0.c	1c
.	.	.	1r
.	.	.	1c
=6	=6-	=6	=6
0.r	0.ryy	1r	1.e
.	.	1r	.
.	.	.	2f/
.	.	1c	1g
=7	=7	=7	=7
!	!LO:N:vis:0.	!	!
0.r	0.r	1.e	1c
.	.	.	1r
.	.	2f\	.
.	.	1g	1b
=8	=8-	=8	=8
0.r	0.ryy	2.c\	1.cc
.	.	4B\	.
.	.	2A/	.
.	.	2G/	2b\
.	.	2.c\	1a
.	.	4d\	.
=9	=9	=9	=9
!	!LO:N:vis:0.	!	!
0.r	0.r	2.e\	1g
.	.	4d\	.
.	.	2e\	1cc
.	.	1f	.
.	.	.	1dd
.	.	[2g\	.
=10	=10-	=10	=10
0.r	0.ryy	2g\]	2.ee\
.	.	2c\	.
.	.	.	4dd\
.	.	2g\	2ee\
.	.	2a\	2.ff\
.	.	2f\	.
.	.	.	4ee\
.	.	[2g\	4dd\
.	.	.	4cc\
=11	=11	=11	=11
!	!LO:N:vis:0.	!	!
0.r	0.r	4g\]	2b\
.	.	4f\	.
.	.	4e\	2.ee\
.	.	4d\	.
.	.	2c\	.
.	.	.	4dd\
.	.	2e\	1cc
.	.	1d	.
.	.	.	2b\
=12	=12-	=12	=12
[0.C	0.ryy	[0.c	1cc
.	.	.	1r
.	.	.	1cc
=13	=13	=13	=13
!	!LO:N:vis:0.	!	!
0C]	0.r	0c]	2.cc\
.	.	.	4b\
.	.	.	2cc\
.	.	.	1a
1c	.	1r	.
.	.	.	4g/
.	.	.	4f/
=14	=14-	=14	=14
2.c\	0.ryy	0.r	1e
4B\	.	.	.
2c\	.	.	1r
1A	.	.	.
.	.	.	1a
4G\	.	.	.
4F\	.	.	.
=15	=15	=15	=15
!	!LO:N:vis:0.	!	!
1E	0.r	0.r	1g
1r	.	.	1.cc
1A	.	.	.
.	.	.	2b\
=16	=16-	=16	=16
1G	0.ryy	0.r	1b
1.c	.	.	1.a
2B\	.	.	2g/
=17	=17	=17	=17
!	!LO:N:vis:0.	!	!
1B	0.r	0.r	1g
1.A	.	.	1r
.	.	.	1cc
2G\	.	.	.
=18	=18-	=18	=18
1G	0.ryy	0.r	2b\
.	.	.	1b
1r	.	.	.
.	.	.	2g/
1F	.	.	2.a/
.	.	.	4b\
=19	=19	=19	=19
!	!LO:N:vis:0.	!	!
2E\	0.r	0.r	1g
1E	.	.	.
.	.	.	1r
2C/	.	.	.
2.D\	.	.	1f
4E\	.	.	.
=20	=20-	=20	=20
2C/	0.ryy	0.r	2e/
2G\	.	.	1e
2A\	.	.	.
1c	.	.	2c/
.	.	.	2.d/
2B\	.	.	.
.	.	.	4e/
=21	=21	=21	=21
!	!LO:N:vis:0.	!	!
1c	0.r	0.r	2c/
.	.	.	2.g/
2G\	.	.	.
.	.	.	4f/
2A\	.	.	2e/
2B\	.	.	2d/
[2c\	.	.	2c/
=22	=22-	=22	=22
2c\]	0.ryy	0.r	2.g/
2G\	.	.	.
.	.	.	4f/
2A\	.	.	2e/
2B\	.	.	2d/
2c\	.	.	2.g/
[2G\	.	.	.
.	.	.	4f/
=23	=23	=23	=23
!	!LO:N:vis:0.	!	!
4G\]	0.r	0.r	2.e/
4F\	.	.	.
2.E\	.	.	.
.	.	.	8d/L
.	.	.	8c/J
.	.	.	2B/
4D\	.	.	.
2C/	.	.	2c/
2BB/	.	.	2d/
[2C/	.	.	[2e/
=24	=24-	=24	=24
2C/]	0.ryy	0.r	4e/]
.	.	.	4d/
2E\	.	.	1c
1D	.	.	.
.	.	.	2B/
1C	.	.	1c
=25	=25	=25	=25
!	!LO:N:vis=0	!	!
1r	[y0.e	[0.c	0.r
1r	.	.	.
[1C	.	.	.
=26	=26-	=26	=26
0.C]	1e]yy	0c]	0g
.	0e	.	.
.	.	1c	1cc
=27	=27	=27	=27
!	!LO:N:vis=0	!	!
0G	[y0.d	2G/	2b\
.	.	2.d\	1b
.	.	4e\	.
.	.	2g\	4a/
.	.	.	4g/
1D	.	2f\	1a
.	.	[2d\	.
=28	=28-	=28	=28
1G	1d]yy	2d\]	2b\
.	.	4c\	2.dd\
.	.	4B\	.
1F	0d	1A	.
.	.	.	4cc\
.	.	.	2a/
1G	.	1G	1b
=29	=29	=29	=29
!	!LO:N:vis=0.	!	!
[0.C	[y0.c	1g	1cc
.	.	2e\	1g
.	.	2f\	.
.	.	1g	2e/
.	.	.	2f/
=30	=30-	=30	=30
0.C]	0.c]yy	1c	1g
.	.	2r	1c
.	.	2.g\	.
.	.	.	2.g/
.	.	4f\	.
.	.	2e\	.
.	.	.	4a/
=31	=31	=31	=31
!	!LO:N:vis:0.	!	!
0.r	0.r	2d\	2b\
.	.	2c\	2.cc\
.	.	1f	.
.	.	.	4b\
.	.	.	2a/
.	.	2e\	2g/
.	.	2d\	2f/
=32	=32-	=32	=32
0.r	0.ryy	2c\	2e/
.	.	2B\	1d
.	.	1G	.
.	.	.	1g
.	.	1A	.
.	.	.	2f#i/
=33	=33	=33	=33
!	!LO:N:vis=0	!	!
[0.G	[y0.B-	0.G	0.g
=34	=34-	=34	=34
0G]	1B-]yy	0d	1r
.	0B-i	.	1r
1G	.	1d	1g
=35	=35	=35	=35
!	!LO:N:vis=0	!	!
1.D	[y0.A	1.d	2f/
.	.	.	2d/
.	.	.	2.f/
1F	.	2c\	.
.	.	.	4g/
.	.	1f	2.a/
2D\	.	.	.
.	.	.	4b\
=36	=36-	=36	=36
2C/	1A]yy	2e\	2cc\
1F	.	2.f\	2.a/
.	0A	.	.
.	.	4e\	4g/
2G\	.	2.d\	1g
1D	.	.	.
.	.	4c\	.
.	.	2A/	2f#i/
=37	=37	=37	=37
!	!LO:N:vis=0.	!	!
1G	[y0.G	2.B\	1g
.	.	4c\	.
2.B\	.	2d\	1r
.	.	2e\	.
4c\	.	.	.
1d	.	2d\	1g
.	.	[2g\	.
=38	=38-	=38	=38
1G	0.G]yy	4g\]	2.g/
.	.	4f\	.
.	.	2e\	.
.	.	.	4a/
1r	.	2d\	2b\
.	.	2c\	1cc
1G	.	1d	.
.	.	.	2b\
=39	=39	=39	=39
!	!LO:N:vis:0.	!	!
1A	0.r	1c	2cc\
.	.	.	1a
2F\	.	1d	.
1G	.	.	1b-i
.	.	1G	.
2E\	.	.	4a/
.	.	.	4g/
=40	=40-	=40	=40
2D\	0.ryy	2.d\	2.f/
1d	.	.	.
.	.	4e\	4g/
.	.	2f\	2a/
2B\	.	1g	2g/
1A	.	.	2.cc\
.	.	2f#i\	.
.	.	.	4dd\
=41	=41	=41	=41
!	!LO:N:vis=0	!	!
0.G	[y0.g	0.g	0b
.	.	.	1r
=42	=42-	=42	=42
1r	1g]yy	0G	0b
1r	0g	.	.
1E	.	1G	1b
=43	=43	=43	=43
!	!LO:N:vis=0	!	!
0F	[y0.f	0.A	1a
.	.	.	2f/
.	.	.	2.a/
[1D	.	.	.
.	.	.	4g/
.	.	.	4f/
.	.	.	4e/
=44	=44-	=44	=44
1D]	1f]yy	1F	1d
0BB-i	0f	1.B-	1r
.	.	.	1d
.	.	2A/	.
=45	=45	=45	=45
!	!LO:N:vis=0.	!	!
[0.C	[y0.e	1G	1c
.	.	1g	2e/
.	.	.	2f/
.	.	2e\	1g
.	.	2f\	.
=46	=46-	=46	=46
0.C]	0.e]yy	1g	1c
.	.	0c	1r
.	.	.	1cc
=47	=47	=47	=47
!	!LO:N:vis:0.	!	!
0.r	0.r	1g	1b-
.	.	2f\	2a/
.	.	1e	1g
.	.	4d\	4f/
.	.	4c\	4e/
=48	=48-	=48	=48
0.r	0.ryy	2d\	2f/
.	.	2G/	2g/
.	.	2A/	1c
.	.	1c	.
.	.	.	1d
.	.	2B\	.
=49	=49	=49	=49
!	!LO:N:vis=0	!	!
[0.C	[y0.e	0c	0.c
.	.	2e\	.
.	.	2f\	.
=50	=50-	=50	=50
0C]	1e]yy	1.g	0.r
.	0e	.	.
.	.	1e	.
2E\	.	.	.
2F\	.	4d\	.
.	.	4c\	.
=51	=51	=51	=51
!	!LO:N:vis=0	!	!
1G	[y0.d	2.B\	1r
.	.	4G/	.
2F\	.	2A/	1r
1G	.	2B\	.
.	.	1G	1g
4F\	.	.	.
4E\	.	.	.
=52	=52-	=52	=52
2D\	1d]yy	1r	2a/
1G	.	.	1b
.	0d	0G	.
2A\	.	.	2cc\
1B	.	.	1dd
=53	=53	=53	=53
!	!LO:N:vis=0.	!	!
0.c	[y0.c	0g	0ee
.	.	1c	1ee
=54	=54-	=54	=54
0.C	0.c]yy	2r	1.ee
.	.	1g	.
.	.	2f\	2dd\
.	.	1e	1cc
=55	=55	=55	=55
!	!LO:N:vis:0.	!	!
0G	0.r	1d	1b
.	.	1g	1r
1r	.	1f	1a
=56	=56-	=56	=56
0.r	0.ryy	2e\	2g/
.	.	1d	1f
.	.	1c	2e/
.	.	.	2.d/
.	.	2B\	.
.	.	.	4c/
=57	=57	=57	=57
!	!LO:N:vis:0.	!	!
2.C/	0.r	0.c	2.e/
4D\	.	.	4f/
2E\	.	.	2g/
2.F\	.	.	2.a/
4G\	.	.	4g/
2A\	.	.	4f/
.	.	.	4e/
=58	=58-	=58	=58
2B\	0.ryy	1r	2d/
2.c\	.	.	2c/
.	.	1r	1e
4B\	.	.	.
2c\	.	.	.
2d\	.	1f	1d
2B\	.	.	.
=59	=59	=59	=59
!	!LO:N:vis:0.	!	!
1c	0.r	2e\	2.g/
.	.	2.g\	.
.	.	.	4a/
1r	.	.	2b\
.	.	4f\	.
.	.	1e	2.cc\
1C	.	.	.
.	.	.	4dd\
.	.	4d\	2ee\
.	.	4c\	.
=60	=60-	=60	=60
2BB-/	0.ryy	2d\	2ff\
2.C/	.	2c\	2.ee\
.	.	1e	.
4D\	.	.	4dd\
4E\	.	.	1cc
4F\	.	.	.
1G	.	1d	.
.	.	.	2b\
=61	=61	=61	=61
*	*rscale:1	*	*
0.Cl	0.cl	0.cl	0.ccl
!!LO:LB:i:g=z
=62||	=62||	=62||	=62||
!!section: Qui tollis
!!!OMD: Qui tollis
*M2/1	*M2/1	*M2/1	*M2/1
*met(C|)	*met(C|)	*met(C|)	*met(C|)
0G	0r	0r	0r
=63	=63	=63	=63
1A	0r	0r	0r
1A	.	.	.
=64	=64	=64	=64
1.G	0r	0g	0r
4F\	.	.	.
4E\	.	.	.
=65	=65	=65	=65
1F	0r	1a	0r
1F	.	1a	.
=66	=66	=66	=66
1.E	0r	1.g	0r
4D\	.	4f\	.
4C/	.	4e\	.
=67	=67	=67	=67
1D	0r	1f	0r
1D	.	1f	.
=68	=68	=68	=68
0C	0r	1.e	0r
.	.	4d\	.
.	.	4c\	.
=69	=69	=69	=69
1r	0r	1d	0r
1G	.	1d	.
=70	=70	=70	=70
1A	0r	0c	0r
[1c	.	.	.
=71	=71	=71	=71
2c\]	0r	1r	0r
2B\	.	.	.
1A	.	1c	.
=72	=72	=72	=72
2G\	0r	1d	0r
2F\	.	.	.
[1D	.	[1f	.
=73	=73	=73	=73
1D]	0r	2f\]	0r
.	.	2e\	.
1C	.	1e	.
=74	=74	=74	=74
1.G	0r	1d	0r
.	.	[1g	.
2A\	.	.	.
=75	=75	=75	=75
1B	0r	2g\]	0r
.	.	2f\	.
1c	.	1e	.
=76	=76	=76	=76
2B\	0r	2d\	0r
2G\	.	1e	.
1A	.	.	.
.	.	4d\	.
.	.	4c\	.
=77	=77	=77	=77
1G	0r	2.B\	0r
.	.	4G/	.
2F\	.	2A/	.
2G\	.	[2G/	.
=78	=78	=78	=78
2E\	0r	2G/]	0r
2C/	.	2c\	.
2.G\	.	2B\	.
.	.	[2e\	.
4F\	.	.	.
=79	=79	=79	=79
2G\	0r	4e\]	0r
.	.	4d\	.
2E\	.	1c	.
1D	.	.	.
.	.	2B\	.
=80	=80	=80	=80
0C	0r	[0c	0r
=81	=81	=81	=81
0r	0r	0c]	0r
=82	=82	=82	=82
0c	0r	1r	0r
.	.	1c	.
=83	=83	=83	=83
1B	0r	1d	0r
1c	.	1e	.
=84	=84	=84	=84
1A	0r	1c	0r
1G	.	[1g	.
=85	=85	=85	=85
1c	0r	2g\]	0r
.	.	2f\	.
1c	.	1e	.
=86	=86	=86	=86
2.B\	0r	2.d\	0r
4A\	.	4c\	.
2B\	.	2d\	.
[2c\	.	[2e\	.
=87	=87	=87	=87
2c\]	0r	2e\]	0r
2B\	.	4d\	.
.	.	4e\	.
1A	.	4f\	.
.	.	4e\	.
.	.	4d\	.
.	.	4c\	.
=88	=88	=88	=88
1G	0r	0B	0r
1r	.	.	.
=89	=89	=89	=89
1.G	0r	1r	0r
.	.	1g	.
2F\	.	.	.
=90	=90	=90	=90
1E	0r	1g	0r
1D	.	1f	.
=91	=91	=91	=91
1C	0r	2e\	0r
.	.	2c\	.
2r	.	1d	.
[2F\	.	.	.
=92	=92	=92	=92
2F\]	0r	1.c	0r
2G\	.	.	.
2A\	.	.	.
2B\	.	2B\	.
=93	=93	=93	=93
1c	0r	1A	0r
2B\	.	2G/	.
[2A\	.	[2c\	.
=94	=94	=94	=94
2A\]	0r	2c\]	0r
1G	.	2B\	.
.	.	1A	.
2F#i\	.	.	.
=95	=95	=95	=95
1.G	0r	2.G/	0r
.	.	4A/	.
.	.	2.B\	.
2E\	.	.	.
.	.	4c\	.
=96	=96	=96	=96
2F\	0r	2d\	0r
2G\	.	2.e\	.
1C	.	.	.
.	.	4f\	.
.	.	[2g\	.
=97	=97	=97	=97
1c	0r	2g\]	0r
.	.	4f\	.
.	.	4e\	.
2B\	.	2d\	.
[2G\	.	[2e\	.
=98	=98	=98	=98
4G\]	0r	4e\]	0r
4F\	.	4d\	.
2E\	.	1c	.
1D	.	.	.
.	.	2B\	.
=99	=99	=99	=99
0Cl	0r	0cl	0r
!!LO:LB:i:g=z
=100||	=100||	=100||	=100||
!!section: Qui sedes
!!!OMD: Qui sedes
*M2/1	*M2/1	*M2/1	*M2/1
*met(C|)	*met(C)	*met(C|)	*met(C|)
*	*rscale:1/2	*	*
!	!LO:N:vis=0	!	!
[0C	[y0e	[0c	[0cc
=101	=101-	=101	=101
0C]	0e]yy	0c]	1cc]
.	.	.	2b\
.	.	.	2a/
=102	=102	=102	=102
0C	0e	0c	1g
.	.	.	1a
=103	=103-	=103	=103
[0G	[0d	0G	0b
=104	=104	=104	=104
0G]	0d]	0g	1b
.	.	.	1b
=105	=105-	=105	=105
0D	0d	1f	2a/
.	.	.	1a
.	.	1d	.
.	.	.	4g/
.	.	.	4f/
=106	=106	=106	=106
!	!LO:N:vis=0	!	!
1.A	[y0c	1e	1.e
.	.	[1c	.
4G\	.	.	2f/
4F\	.	.	.
=107	=107-	=107	=107
1E	0c]yy	2c\]	1g
.	.	2B\	.
1F	.	1A	1a
=108	=108	=108	=108
1G	0r	1.G	1b
2E\	.	.	1cc
2F\	.	2A/	.
=109	=109-	=109	=109
1D	0r	1B	1dd
[1C	.	1c	[1ee
=110	=110	=110	=110
0C]	0r	0e	2ee\]
.	.	.	2cc\
.	.	.	[1cc
=111	=111-	=111	=111
0G	0r	0d	2cc\]
.	.	.	4b\
.	.	.	4a/
.	.	.	1b
=112	=112	=112	=112
0C	[0e	1r	1cc
.	.	1c	1r
=113	=113-	=113	=113
1r	0e_	1c	3%4gV
1C	.	1c	.
.	.	.	[3%2gZ
=114	=114	=114	=114
1C	0e]	2G/	3%2g]V
.	.	2.c\	.
.	.	.	3%4gZ
1C	.	.	.
.	.	4d\	.
.	.	2e\	.
=115	=115-	=115	=115
1.D	[0d	2f\	1.f
.	.	1d	.
2E\	.	4c\	2g/
.	.	4B\	.
=116	=116	=116	=116
1F	0d]	1A	1a
[1G	.	1G	[1b-
=117	=117-	=117	=117
1G]	0d	0r	2b-\]
.	.	.	2a/
1D	.	.	1a
=118	=118	=118	=118
!	!LO:N:vis=0	!	!
1.F	[y0c	0r	2f/
.	.	.	1a
2E\	.	.	4g/
.	.	.	4f/
=119	=119-	=119	=119
0C	0c]yy	1r	0e
.	.	[1c	.
=120	=120	=120	=120
0r	0r	2c\]	1r
.	.	2B\	.
.	.	1A	1cc
=121	=121-	=121	=121
0r	0r	1G	1b
.	.	[1c	1a
=122	=122	=122	=122
0r	0r	2c\]	1g
.	.	2d\	.
.	.	[1e	1g
=123	=123-	=123	=123
0r	0r	1e]	1.cc
.	.	1f	.
.	.	.	2dd\
*	*rscale:1	*	*
=124	=124	=124	=124
*	*M2/1	*	*
*	*met(2)	*	*
0C	0g	1e	1.ee
.	.	[1c	.
.	.	.	2dd\
=125	=125	=125	=125
1C	1g	1c]	1ee
1D	[1f	1r	[1ff
=126	=126	=126	=126
1BB-	1f]	0r	2ff\]
.	.	.	1dd
1D	1f	.	.
.	.	.	4cc\
.	.	.	4dd\
=127	=127	=127	=127
[0C	0e	1r	1ee
.	.	[1c	1r
=128	=128	=128	=128
0C]	0r	2c\]	1r
.	.	2B\	.
.	.	1c	1ee
=129	=129	=129	=129
0r	0r	1d	1ff
.	.	2B\	2dd\
.	.	[2c\	[2ee\
=130	=130	=130	=130
1r	0g	2c\]	2ee\]
.	.	4B\	4dd\
.	.	4A/	4cc\
1G	.	1G	1b
=131	=131	=131	=131
1E	1g	1G	1r
1F	[1f	[1A	1cc
=132	=132	=132	=132
0D	1f]	1A]	1dd
.	1f	1B	1dd
=133	=133	=133	=133
0C	0e	1.c	1.ee
.	.	4B\	2cc\
.	.	4A/	.
=134	=134	=134	=134
0r	0r	1B	2dd\
.	.	.	2ff\
.	.	2c\	2ee\
.	.	2G/	[2dd\
=135	=135	=135	=135
0r	0r	1c	2dd\]
.	.	.	1cc
.	.	1d	.
.	.	.	2b\
=136	=136	=136	=136
1.C	0e	1.c	0cc
2D\	.	4B\	.
.	.	4A/	.
=137	=137	=137	=137
2.E\	1e	0G	0r
4F\	.	.	.
[1G	[1d	.	.
=138	=138	=138	=138
0G]	1d]	0g	0b
.	1d	.	.
=139	=139	=139	=139
0A	0c	0e	1.cc
.	.	.	2b\
=140	=140	=140	=140
1.F	0r	0f	1.a
4E\	.	.	4g/
4D\	.	.	4f/
=141	=141	=141	=141
[0C	0r	0g	0e
=142	=142	=142	=142
*	*M2/1	*	*
*	*met(C|)	*	*
0C]	0e	1.c	0r
.	.	2B\	.
=143	=143	=143	=143
0r	1e	1c	0r
.	[1d	1d	.
=144	=144	=144	=144
0r	1d]	1B	0r
.	1d	1r	.
=145	=145	=145	=145
[0C	0c	1.e	1.cc
.	.	2d\	2b\
=146	=146	=146	=146
1C]	0r	1c	1cc
[1G	.	2B\	1dd
.	.	[2d\	.
=147	=147	=147	=147
0G]	0r	4d\]	1b
.	.	4c\	.
.	.	4B\	.
.	.	4A/	.
.	.	1B	1r
=148	=148	=148	=148
1.C	0e	0c	1.gg
2D\	.	.	2ff\
=149	=149	=149	=149
2.E\	1e	0G	2ee\
.	.	.	4dd\
4F\	.	.	4cc\
2.G\	[1d	.	2b\
.	.	.	[2dd\
4A\	.	.	.
=150	=150	=150	=150
2.B\	1d]	0r	4dd\]
.	.	.	4cc\
.	.	.	4b\
4c\	.	.	4a/
1G	1d	.	1b
=151	=151	=151	=151
0C	0c	1g	1cc
.	.	2a\	1r
.	.	[2g\	.
=152	=152	=152	=152
0r	0r	2g\]	1g
.	.	2e\	.
.	.	2f\	2a/
.	.	2g\	[2g/
=153	=153	=153	=153
0r	0r	2e\	2g/]
.	.	2c\	4f/
.	.	.	4e/
.	.	2.d\	2.f/
.	.	4e\	4g/
=154	=154	=154	=154
*M2/1	*M2/1	*	*
*met(2)	*met(2)	*	*
*rscale:2	*rscale:2	*	*
2.C/	1g	0c	1e
4D\	.	.	.
2E\	2g\	.	1r
2F\	[2f\	.	.
=155	=155	=155	=155
2D\	2f\]	1r	1a
2F\	2f\	.	.
1C	1e	[1c	2g/
.	.	.	[2g/
=156	=156	=156	=156
0r	0r	1c]	2g/]
.	.	.	4f/
.	.	.	4e/
.	.	1d	2f/
.	.	.	4e/
.	.	.	4d/
=157	=157	=157	=157
1.C	1g	2.e\	1c
.	.	4d\	.
.	2g\	2e\	1r
2D\	[2f\	2f\	.
=158	=158	=158	=158
2BB-/	2f\]	1d	1r
2D\	2f\	.	.
[1C	1e	1r	2.c/
.	.	.	4d/
=159	=159	=159	=159
1C]	0r	2.c\	2e/
.	.	.	2f/
.	.	4d\	.
1r	.	2.e\	1g
.	.	4f\	.
=160	=160	=160	=160
2.C/	1e	1.g	2r
.	.	.	1g
4D\	.	.	.
2E\	2e\	.	.
2F\	[2d\	2f\	2a/
=161	=161	=161	=161
1G	2d\]	2d\	1b
.	2d\	2g\	.
1A	1c	2e\	1cc
.	.	2f\	.
=162	=162	=162	=162
1B	0r	1d	1dd
1c	.	[1c	1ee
=163	=163	=163	=163
0A	0c	1c]	2ff\
.	.	.	1ee
.	.	2e\	.
.	.	2f\	4dd\
.	.	.	4cc\
=164	=164	=164	=164
*rscale:1	*rscale:1	*	*
!LO:N:vis=00	!LO:N:vis=00	!LO:N:vis=00	!LO:N:vis=00
0G;	0d;	0g;	0b;
=165	=165	=165	=165
0Cl	0cl	0gl	0ccl
==	==	==	==
*-	*-	*-	*-
!!!RDF**kern: l=long note in original notation
!!!RDF**kern: i=editorial accidental
!!!RDF**kern: V=start of tuplet marker
!!!RDF**kern: Z=end of tuplet marker
!!!ENC:	Jesse Rodin; Victoria Chang 2012/02/07
!!!END:	2012/02/07/
!!!EED:	Jesse Rodin
!!!EEV:	2012/05/25/
!!attribution-level@Jos: 3 (tricky)
!!!ONB:	Translated from MusicXML and edited on 2012/05/25/ by Craig Sapp
!!muse2ps: T^@{OPR}^u^@{ONM}{. }@{OTL}^C^@{COA}?\n@{SCT}^i2I150v85,85,85,150Q16
